X: 19805
T: Jerome Burke's
R: polka
M: 2/4
K: Dmajor
|:A|DF AB/c/|d>c BA|BE- EF|GA/G/ FE|
D2 AB/c/|d/e/d/c/ BA|Be Bc|d2- d:|
|:e|f2 fe/f/|g/a/g/f/ ed|e2 ed/e/|g/f/e/d/ c/B/A|
fA ff/a/|g>f ed|c/B/A Bc|1 dA d:|2 d2- d||

